X:1
T:G Major Jacob French, 1802
T:Anonymous Author 86. 86. (C. M.)
T:Resurrection
T:Transcribed from Harmony of Harmony, 1802
%%score [ 1 2 3 4 ]
L:1/8
Q:1/4=150
M:4/4
K:G
V:1 treble nm="Voice" snm="Tr."
V:2 treble nm="Voice" snm="C."
V:3 treble-8 nm="Tenor" snm="T."
V:4 bass nm="Bass" snm="B."
V:1
 B2 | d2 B2 B2 B2 | c2 e2 e2 dc | B2 A2 G2 F2 | G4 z2 GA | B2 B2 B2 A2 | G3 G G2 G2 | A2 A2 A2 AG | %8
w: The|joy- ful day is|co- ming on, I *|shall a- rise and|sing, O *|death, where is thy|vic- to- ry, O|grave where is thy *|
 F4 z2 BA | G2 G2 G2 AG | F3 F F2 FG | B2 cB A2 A2 | B8 |] %13
w: sting? O *|death where is thy *|vic- to- ry, O *|grave where * is thy|sting?|
V:2
 z2 | z8 | z4 z2 D2 | D2 D2 D2 D2 | D4 z2 D2 | G2 G2 F2 F2 | E3 E E2 E2 | E2 E2 E2 E2 | D4 z2 D2 | %9
w: ||I|shall a- rise and|sing, *|||||
 D2 D2 D2 E2 | D3 D D2 D2 | E2 E2 D2 D2 | D8 |] %13
w: ||||
V:3
 G2 | DG G2 G2 G2 | FA A2 A2 BA | G2 A2 B2 A2 | B4 z2 Bc | d2 d2 d2 c2 | B3 B B2 B2 | c2 c2 c2 cB | %8
w: The|joy- * ful day is|co- * ming on, I *|shall a- rise and|sing, O *|death, where is thy|vic- to- ry, O|grave where is thy *|
 A4 z2 dc | B2 B2 B2 BA | A3 A A2 BA | G2 AG F2 F2 | G8 |] %13
w: sting? O *|death where is thy *|vic- to- ry, O *|grave where * is thy|sting?|
V:4
 z2 | z8 | z4 z2 G,,A,, | B,,C, D,2 G,2 D,2 | G,4 z2 G,2 | G,2 G,2 D,2 D,2 | E,3 E, E,2 E,2 | %7
w: ||I *|shall * a- rise and|sing, *|||
 C,2 C,2 A,,2 A,,2 | D,4 z2 D,2 | G,2 G,2 G,2 C,2 | D,3 D, D,2 G,F, | E,2 C,2 D,2 D,2 | G,,8 |] %13
w: ||||||

